packages/asc-assets/svg/Download.svg

<?xml version="1.0" encoding="UTF-8"?>
<svg viewBox="0 0 32 32" version="1.1" xmlns="http://www.w3.org/2000/svg" xmlns:xlink="http://www.w3.org/1999/xlink">
    <path d="M0,27.9962465 L32,27.9962465 L32,32 L0,32 L0,27.9962465 Z M22.36,14.0131373 L25.19,16.8357835 L16,26.0444166 L6.81,16.8357835 L9.64,14.0131373 L14,18.3772287 L14,-3.55271368e-15 L18,-3.55271368e-15 L18,18.3772287 L22.36,14.0131373 Z" id="download" fill="#000000"></path>
</svg>

<svg viewBox="0 0 32 32"><path d="M0 28h32v4H0v-4zM22.36 14l2.83 2.83-9.19 9.2-9.19-9.2L9.64 14 14 18.38V0h4v18.38L22.36 14z"></path></svg>
